X:1
T:Torn A' My Goon
M:6/8
L:1/4
K:G
 d3/2| g3/2 G3/2| G- B/2 A- G/2| D- E/2 G A/2| B3/2 A- B/2| c3/2 A3/2|\
 A- B/2 A- G/2| F- G/2 A B/2| c3/2 d3/2| g3/2 G3/2| G3/2 G3/2| D- E/2 G A/2|\
 B3/2 A- B/2| c- B/2 c d/2| e- f/2 g e/2| d- c/2 B A/2| G3/2||

